X: 28446
T: Mullingar Races, The
R: reel
M: 4/4
K: Dmajor
FE|:DEFD EA A2|DEFA Bcde|faec d2cA|(3Bcd AF EGFE|
DEFD EA A2|DEFA Bcde|faec (3dcB AG|1 FGEF D2 FE:|2 FGEF D2 Ac||
|:d2fd Adfd|afdf edBA|d2fd Adfd|Beef edBA|
d2fd Adfg|afdf edBA|faec dBAG|FGEF D2:|

